dist/images/content/catalog-items/rub.svg

<svg width="11" height="13" viewBox="0 0 11 13" fill="none" xmlns="http://www.w3.org/2000/svg">
<path d="M1.95817 12.875V10.75H0.541504V9.33333H1.95817V7.91667H0.541504V6.5H1.95817V0.125H6.56234C7.64845 0.125 8.56928 0.502778 9.32484 1.25833C10.0804 2.01389 10.4582 2.93472 10.4582 4.02083C10.4582 5.10694 10.0804 6.02778 9.32484 6.78333C8.56928 7.53889 7.64845 7.91667 6.56234 7.91667H3.37484V9.33333H6.20817V10.75H3.37484V12.875H1.95817ZM3.37484 6.5H6.56234C7.24706 6.5 7.83144 6.25799 8.31546 5.77396C8.79949 5.28993 9.0415 4.70556 9.0415 4.02083C9.0415 3.33611 8.79949 2.75174 8.31546 2.26771C7.83144 1.78368 7.24706 1.54167 6.56234 1.54167H3.37484V6.5Z" fill="#4926E8"/>
</svg>

<svg width="11" height="13" fill="none" xmlns="http://www.w3.org/2000/svg"><path d="M1.958 12.875V10.75H.542V9.333h1.416V7.917H.542V6.5h1.416V.125h4.604c1.086 0 2.007.378 2.763 1.133.755.756 1.133 1.677 1.133 2.763 0 1.086-.378 2.007-1.133 2.762-.756.756-1.677 1.134-2.763 1.134H3.375v1.416h2.833v1.417H3.375v2.125H1.958zM3.375 6.5h3.187c.685 0 1.27-.242 1.753-.726a2.389 2.389 0 00.726-1.753c0-.685-.242-1.27-.726-1.753a2.389 2.389 0 00-1.753-.726H3.375V6.5z" fill="#4926E8"/></svg>
